Numix/16/status/indicator-keyboard-Hi-2.svg

<?xml version="1.0" encoding="UTF-8" standalone="no"?>
<svg
   xmlns:dc="http://purl.org/dc/elements/1.1/"
   xmlns:cc="http://creativecommons.org/ns#"
   xmlns:rdf="http://www.w3.org/1999/02/22-rdf-syntax-ns#"
   xmlns:svg="http://www.w3.org/2000/svg"
   xmlns="http://www.w3.org/2000/svg"
   xmlns:sodipodi="http://sodipodi.sourceforge.net/DTD/sodipodi-0.dtd"
   xmlns:inkscape="http://www.inkscape.org/namespaces/inkscape"
   viewBox="0 0 16 16"
   id="svg2"
   version="1.1"
   inkscape:version="0.91 r13725"
   sodipodi:docname="indicator-keyboard-Hi-2.svg">
  <metadata
     id="metadata14">
    <rdf:RDF>
      <cc:Work
         rdf:about="">
        <dc:format>image/svg+xml</dc:format>
        <dc:type
           rdf:resource="http://purl.org/dc/dcmitype/StillImage" />
      </cc:Work>
    </rdf:RDF>
  </metadata>
  <defs
     id="defs12" />
  <sodipodi:namedview
     pagecolor="#ffffff"
     bordercolor="#666666"
     borderopacity="1"
     objecttolerance="10"
     gridtolerance="10"
     guidetolerance="10"
     inkscape:pageopacity="0"
     inkscape:pageshadow="2"
     inkscape:window-width="640"
     inkscape:window-height="480"
     id="namedview10"
     showgrid="false"
     inkscape:zoom="14.75"
     inkscape:cx="8"
     inkscape:cy="8"
     inkscape:window-x="65"
     inkscape:window-y="24"
     inkscape:window-maximized="0"
     inkscape:current-layer="svg2" />
  <path
     style="fill:#ececec;fill-opacity:1"
     d="M 1.5996094 0 C 0.71320937 2.9605947e-16 0 0.71320937 0 1.5996094 L 0 14.400391 C 2.9605947e-16 15.286791 0.71320937 16 1.5996094 16 L 14.400391 16 C 15.286791 16 16 15.286791 16 14.400391 L 16 1.5996094 C 16 0.71320937 15.286791 0 14.400391 0 L 1.5996094 0 z M 9.3007812 4.5898438 C 9.4207812 4.5898438 9.5234219 4.6308438 9.6074219 4.7148438 C 9.6914219 4.7928438 9.7324219 4.9010625 9.7324219 5.0390625 C 9.7324219 5.1770625 9.6914219 5.2870937 9.6074219 5.3710938 C 9.5234219 5.4490937 9.4207812 5.4882813 9.3007812 5.4882812 C 9.1807813 5.4882812 9.0781406 5.4490937 8.9941406 5.3710938 C 8.9101406 5.2870937 8.8691406 5.1770625 8.8691406 5.0390625 C 8.8691406 4.9010625 8.9101406 4.7928438 8.9941406 4.7148438 C 9.0781406 4.6308438 9.1807813 4.5898437 9.3007812 4.5898438 z M 2.8261719 4.859375 L 3.4375 4.859375 L 3.4375 7.5683594 L 6.8222656 7.5683594 L 6.8222656 4.859375 L 7.4335938 4.859375 L 7.4335938 11.095703 L 6.8222656 11.095703 L 6.8222656 8.0996094 L 3.4375 8.0996094 L 3.4375 11.095703 L 2.8261719 11.095703 L 2.8261719 4.859375 z M 9.0136719 6.4433594 L 9.5976562 6.4433594 L 9.5976562 11.095703 L 9.0136719 11.095703 L 9.0136719 6.4433594 z M 11.845703 8.7539062 C 12.239603 8.7539062 12.535475 8.851875 12.734375 9.046875 C 12.933274 9.237975 13.033203 9.5044563 13.033203 9.8476562 C 13.033203 9.9997563 13.005772 10.14475 12.951172 10.28125 C 12.896572 10.41385 12.822115 10.543169 12.728516 10.667969 C 12.638816 10.792769 12.536922 10.912297 12.419922 11.029297 C 12.302922 11.146297 12.1834 11.263859 12.0625 11.380859 C 11.9611 11.478359 11.861172 11.578288 11.763672 11.679688 C 11.670072 11.777188 11.583859 11.877116 11.505859 11.978516 C 11.431759 12.076016 11.372972 12.172031 11.326172 12.269531 C 11.283272 12.363131 11.261719 12.457181 11.261719 12.550781 L 11.261719 12.5625 L 13.173828 12.5625 L 13.173828 12.896484 L 10.839844 12.896484 C 10.839844 12.888684 10.837918 12.874969 10.833984 12.855469 L 10.833984 12.755859 C 10.833984 12.572559 10.867294 12.402094 10.933594 12.246094 C 10.999894 12.086194 11.084147 11.937275 11.185547 11.796875 C 11.290847 11.656475 11.404497 11.525197 11.529297 11.404297 C 11.657997 11.283397 11.781437 11.165834 11.898438 11.052734 C 11.995937 10.959134 12.088028 10.869003 12.173828 10.783203 C 12.263528 10.693503 12.341903 10.603366 12.408203 10.509766 C 12.474503 10.416166 12.525453 10.316238 12.564453 10.210938 C 12.603453 10.105638 12.623047 9.9900344 12.623047 9.8652344 C 12.623047 9.5922344 12.550544 9.39825 12.402344 9.28125 C 12.258044 9.16035 12.073863 9.0996094 11.851562 9.0996094 C 11.726762 9.0996094 11.615078 9.1152844 11.517578 9.1464844 C 11.420078 9.1776844 11.335819 9.2149125 11.261719 9.2578125 C 11.191519 9.2968125 11.130778 9.3379594 11.080078 9.3808594 C 11.029378 9.4237594 10.99215 9.4570688 10.96875 9.4804688 L 10.769531 9.2167969 C 10.792931 9.1894969 10.834078 9.1503094 10.892578 9.0996094 C 10.954978 9.0450094 11.031394 8.9921062 11.121094 8.9414062 C 11.214694 8.8907063 11.320506 8.8476 11.441406 8.8125 C 11.562306 8.7735 11.697503 8.7539063 11.845703 8.7539062 z "
     id="path4" />
</svg>

<svg xmlns="http://www.w3.org/2000/svg" viewBox="0 0 16 16">
 <path d="m 1.6 0 c -0.886 0 -1.6 0.713 -1.6 1.6 l 0 12.801 c 0 0.886 0.713 1.6 1.6 1.6 l 12.801 0 c 0.886 0 1.6 -0.713 1.6 -1.6 l 0 -12.801 c 0 -0.886 -0.713 -1.6 -1.6 -1.6 l -12.801 0 z m 7.701 4.59 c 0.12 0 0.223 0.041 0.307 0.125 c 0.084 0.078 0.125 0.186 0.125 0.324 c 0 0.138 -0.041 0.248 -0.125 0.332 c -0.084 0.078 -0.187 0.117 -0.307 0.117 c -0.12 0 -0.223 -0.039 -0.307 -0.117 c -0.084 -0.084 -0.125 -0.194 -0.125 -0.332 c 0 -0.138 0.041 -0.246 0.125 -0.324 c 0.084 -0.084 0.187 -0.125 0.307 -0.125 z m -6.475 0.27 l 0.611 0 l 0 2.709 l 3.385 0 l 0 -2.709 l 0.611 0 l 0 6.236 l -0.611 0 l 0 -2.996 l -3.385 0 l 0 2.996 l -0.611 0 l 0 -6.236 z m 6.188 1.584 l 0.584 0 l 0 4.652 l -0.584 0 l 0 -4.652 z m 2.832 2.311 c 0.394 0 0.69 0.098 0.889 0.293 c 0.199 0.191 0.299 0.458 0.299 0.801 c 0 0.152 -0.027 0.297 -0.082 0.434 c -0.055 0.133 -0.129 0.262 -0.223 0.387 c -0.09 0.125 -0.192 0.244 -0.309 0.361 c -0.117 0.117 -0.237 0.235 -0.357 0.352 c -0.101 0.098 -0.201 0.197 -0.299 0.299 c -0.094 0.098 -0.18 0.197 -0.258 0.299 c -0.074 0.097 -0.133 0.194 -0.18 0.291 c -0.043 0.094 -0.064 0.188 -0.064 0.281 l 0 0.012 l 1.912 0 l 0 0.334 l -2.334 0 c 0 -0.008 -0.002 -0.022 -0.006 -0.041 l 0 -0.1 c 0 -0.183 0.033 -0.354 0.1 -0.51 c 0.066 -0.16 0.151 -0.309 0.252 -0.449 c 0.105 -0.14 0.219 -0.272 0.344 -0.393 c 0.129 -0.121 0.252 -0.238 0.369 -0.352 c 0.097 -0.094 0.19 -0.184 0.275 -0.27 c 0.09 -0.09 0.168 -0.18 0.234 -0.273 c 0.066 -0.094 0.117 -0.194 0.156 -0.299 c 0.039 -0.105 0.059 -0.221 0.059 -0.346 c 0 -0.273 -0.073 -0.467 -0.221 -0.584 c -0.144 -0.121 -0.328 -0.182 -0.551 -0.182 c -0.125 0 -0.236 0.016 -0.334 0.047 c -0.098 0.031 -0.182 0.068 -0.256 0.111 c -0.07 0.039 -0.131 0.08 -0.182 0.123 c -0.051 0.043 -0.088 0.076 -0.111 0.1 l -0.199 -0.264 c 0.023 -0.027 0.065 -0.066 0.123 -0.117 c 0.062 -0.055 0.139 -0.108 0.229 -0.158 c 0.094 -0.051 0.199 -0.094 0.32 -0.129 c 0.121 -0.039 0.256 -0.059 0.404 -0.059 z" style="fill:#ececec;fill-opacity:1"/>
</svg>
